X:89
T: Vasszilvágyi Gyöngy utcában
M: 3/4
L:1/4
K:Bb
G/G/ c e | d/c/ G G |
d/d/ g b | a/g/ d d |
d/d/ g b | a/g/d/=e/ |
f/d/ B c | d/c/ G G |

